#define brick_filled_width 40
#define brick_filled_height 40
static unsigned char brick_filled_bits[] = {
   0xf8, 0xff, 0xff, 0xff, 0x1f, 0xf8, 0xff, 0xff, 0xff, 0x1f, 0xf8, 0xff,
   0xff, 0xff, 0x1f, 0xf8, 0xff, 0xff, 0xff, 0x1f, 0xf8, 0xff, 0xff, 0xff,
   0x1f, 0xf8, 0xff, 0xff, 0xff, 0x1f, 0xf8, 0xff, 0xff, 0xff, 0x1f, 0xf8,
   0xff, 0xff, 0xff, 0x1f, 0xf8, 0xff, 0xff, 0xff, 0x1f, 0xf8, 0xff, 0xff,
   0xff, 0x1f, 0xf8, 0xff, 0xff, 0xff, 0x1f, 0xf8, 0xff, 0xff, 0xff, 0x1f,
   0xf8, 0xff, 0xff, 0xff, 0x1f, 0xf8, 0xff, 0xff, 0xff, 0x1f, 0xf8, 0xff,
   0xff, 0xff, 0x1f, 0xf8, 0xff, 0xff, 0xff, 0x1f, 0xf8, 0xff, 0xff, 0xff,
   0x1f, 0xf8, 0xff, 0xff, 0xff, 0x1f, 0xf8, 0xff, 0xff, 0xff, 0x1f, 0xf8,
   0xff, 0xff, 0xff, 0x1f, 0xff, 0xff, 0xff, 0xff, 0xff, 0xff, 0xff, 0xff,
   0xff, 0xff, 0x20, 0x08, 0x7e, 0x10, 0x04, 0x00, 0x00, 0x7c, 0x00, 0x00,
   0x00, 0x00, 0x3e, 0x00, 0x00, 0x00, 0x00, 0x7c, 0x00, 0x00, 0x00, 0x00,
   0x3e, 0x00, 0x00, 0x00, 0x00, 0x3c, 0x00, 0x00, 0x00, 0x00, 0x7e, 0x00,
   0x00, 0x00, 0x00, 0x3c, 0x00, 0x00, 0x00, 0x00, 0x7e, 0x00, 0x00, 0x00,
   0x00, 0x3c, 0x00, 0x00, 0x00, 0x00, 0x7e, 0x00, 0x00, 0x00, 0x00, 0x3c,
   0x00, 0x00, 0x00, 0x00, 0x7e, 0x00, 0x00, 0x00, 0x00, 0x3c, 0x00, 0x00,
   0x00, 0x00, 0x7e, 0x00, 0x00, 0x00, 0x00, 0x7e, 0x00, 0x00, 0xff, 0xff,
   0xff, 0xff, 0xff, 0xff, 0xff, 0xff, 0xff, 0xff };
