#define shiningtile_outlined_width 120
#define shiningtile_outlined_height 120
static unsigned char shiningtile_outlined_bits[] = {
   0xff, 0xff, 0x7f, 0x00, 0x00, 0x07, 0x00, 0x70, 0x00, 0x00, 0x80, 0xff,
   0xff, 0xff, 0xff, 0xff, 0xff, 0x7f, 0x00, 0xc0, 0x07, 0x00, 0x7c, 0x00,
   0x00, 0x80, 0xff, 0xff, 0xff, 0xff, 0x00, 0x00, 0xf8, 0x00, 0x80, 0x0f,
   0x00, 0xf8, 0x00, 0x00, 0xc0, 0x07, 0x00, 0x00, 0x00, 0x00, 0x00, 0xf8,
   0x00, 0x80, 0x0f, 0x00, 0xf8, 0x00, 0x00, 0xc0, 0x07, 0x00, 0x00, 0x00,
   0x00, 0x00, 0xf0, 0x01, 0x00, 0x1f, 0x00, 0xf0, 0x01, 0x00, 0xe0, 0x03,
   0x00, 0x00, 0x00, 0x00, 0x00, 0xf0, 0x01, 0x00, 0x1f, 0x00, 0xf0, 0x01,
   0x00, 0xe0, 0x03, 0x00, 0x00, 0x00, 0x00, 0x00, 0xe0, 0x03, 0x00, 0x3e,
   0x00, 0xe0, 0x03, 0x00, 0xf0, 0x01, 0x00, 0x00, 0x00, 0x00, 0x00, 0xe0,
   0x03, 0x00, 0x3e, 0x00, 0xe0, 0x03, 0x00, 0xf0, 0x01, 0x00, 0x00, 0x00,
   0x00, 0x00, 0xc0, 0x07, 0x00, 0x7c, 0x00, 0xc0, 0x07, 0x00, 0xf8, 0x00,
   0x00, 0x00, 0x00, 0x00, 0x00, 0xc0, 0x07, 0x00, 0x7c, 0x00, 0xc0, 0x07,
   0x00, 0xf8, 0x00, 0x00, 0x00, 0x00, 0x00, 0x00, 0x80, 0x0f, 0x00, 0xf8,
   0x00, 0x80, 0x0f, 0x00, 0x7c, 0x00, 0x00, 0x00, 0x00, 0x00, 0x00, 0x80,
   0x0f, 0x00, 0xf8, 0x00, 0x80, 0x0f, 0x00, 0x7c, 0x00, 0x00, 0x00, 0x00,
   0x00, 0x00, 0x00, 0x1f, 0x00, 0xf0, 0x01, 0x00, 0x1f, 0x00, 0x3e, 0x00,
   0x00, 0x00, 0x00, 0x00, 0x00, 0x00, 0x1f, 0x00, 0xf0, 0x01, 0x00, 0x1f,
   0x00, 0x3e, 0x00, 0x00, 0x00, 0x00, 0x00, 0x00, 0x00, 0x3e, 0x00, 0xe0,
   0x03, 0x00, 0x3e, 0x00, 0x1f, 0x00, 0x00, 0x00, 0x00, 0x00, 0x00, 0x00,
   0x3e, 0x00, 0xe0, 0x03, 0x00, 0x3e, 0x00, 0x1f, 0x00, 0x00, 0x00, 0x00,
   0x00, 0x00, 0x00, 0x7c, 0x00, 0xc0, 0x07, 0x00, 0x7c, 0x80, 0x0f, 0x00,
   0x00, 0x00, 0x00, 0x00, 0x00, 0x00, 0x7c, 0x00, 0xc0, 0x07, 0x00, 0x7c,
   0x80, 0x0f, 0x00, 0x00, 0x00, 0x00, 0xff, 0x0f, 0x00, 0xf8, 0x00, 0x80,
   0x0f, 0x00, 0xf8, 0xff, 0x07, 0x00, 0xfc, 0xff, 0xff, 0xff, 0x0f, 0x00,
   0xf8, 0x00, 0x80, 0x0f, 0x00, 0xf8, 0xff, 0x07, 0x00, 0xfc, 0xff, 0xff,
   0xff, 0x1f, 0x00, 0xf0, 0x01, 0x00, 0x1f, 0x00, 0xf0, 0xff, 0x03, 0x00,
   0xfe, 0xff, 0xff, 0xff, 0x1f, 0x00, 0xf0, 0x01, 0x00, 0x1f, 0x00, 0xf0,
   0xff, 0x03, 0x00, 0xfe, 0xff, 0xff, 0x00, 0x3e, 0x00, 0xe0, 0x03, 0x00,
   0x3e, 0x00, 0x00, 0x00, 0x00, 0x00, 0x1f, 0x00, 0x00, 0x00, 0x3e, 0x00,
   0xe0, 0x03, 0x00, 0x3e, 0x00, 0x00, 0x00, 0x00, 0x00, 0x1f, 0x00, 0x00,
   0x00, 0x7c, 0x00, 0xc0, 0x07, 0x00, 0x7c, 0x00, 0x00, 0x00, 0x00, 0x80,
   0x0f, 0x00, 0x00, 0x00, 0x7c, 0x00, 0xc0, 0x07, 0x00, 0x7c, 0x00, 0x00,
   0x00, 0x00, 0x80, 0x0f, 0x00, 0x00, 0x00, 0xf8, 0x00, 0x80, 0x0f, 0x00,
   0xf8, 0x00, 0x00, 0x00, 0x00, 0xc0, 0x07, 0x00, 0x00, 0x00, 0xf8, 0x00,
   0x80, 0x0f, 0x00, 0xf8, 0x00, 0x00, 0x00, 0x00, 0xc0, 0x07, 0x00, 0x00,
   0x00, 0xf0, 0x01, 0x00, 0x1f, 0x00, 0xf0, 0x01, 0x00, 0x00, 0x00, 0xe0,
   0x03, 0x00, 0x00, 0x00, 0xf0, 0x01, 0x00, 0x1f, 0x00, 0xf0, 0x01, 0x00,
   0x00, 0x00, 0xe0, 0x03, 0x00, 0x00, 0x00, 0xe0, 0x03, 0x00, 0x3e, 0x00,
   0xe0, 0x03, 0x00, 0x00, 0x00, 0xf0, 0x01, 0x00, 0x00, 0x00, 0xe0, 0x03,
   0x00, 0x3e, 0x00, 0xe0, 0x03, 0x00, 0x00, 0x00, 0xf0, 0x01, 0x00, 0x00,
   0x00, 0xc0, 0x07, 0x00, 0x7c, 0x00, 0xc0, 0x07, 0x00, 0x00, 0x00, 0xf8,
   0x00, 0x00, 0x00, 0x00, 0xc0, 0x07, 0x00, 0x7c, 0x00, 0xc0, 0x07, 0x00,
   0x00, 0x00, 0xf8, 0x00, 0x00, 0x00, 0x00, 0x80, 0x0f, 0x00, 0xf8, 0x00,
   0x80, 0x0f, 0x00, 0x00, 0x00, 0x7c, 0x00, 0x00, 0x00, 0x00, 0x80, 0x0f,
   0x00, 0xf8, 0x00, 0x80, 0x0f, 0x00, 0x00, 0x00, 0x7c, 0x00, 0x00, 0x00,
   0x00, 0x00, 0x1f, 0x00, 0xf0, 0x01, 0x00, 0x1f, 0x00, 0x00, 0x00, 0x3e,
   0x00, 0x00, 0x00, 0x00, 0x00, 0x1f, 0x00, 0xf0, 0x01, 0x00, 0x1f, 0x00,
   0x00, 0x00, 0x3e, 0x00, 0x00, 0x00, 0x00, 0x00, 0x3e, 0x00, 0xe0, 0x03,
   0x00, 0xfe, 0xff, 0xff, 0xff, 0x1f, 0x00, 0xf0, 0xff, 0x00, 0x00, 0x3e,
   0x00, 0xe0, 0x03, 0x00, 0xfe, 0xff, 0xff, 0xff, 0x1f, 0x00, 0xf0, 0xff,
   0x07, 0x00, 0x7c, 0x00, 0xc0, 0x07, 0x00, 0xfc, 0xff, 0xff, 0xff, 0x0f,
   0x00, 0xf8, 0xff, 0x07, 0x00, 0x7c, 0x00, 0xc0, 0x07, 0x00, 0xfc, 0xff,
   0xff, 0xff, 0x0f, 0x00, 0xf8, 0xff, 0x0f, 0x00, 0xf8, 0x00, 0x80, 0x0f,
   0x00, 0x00, 0x00, 0x00, 0x00, 0x00, 0x00, 0x7c, 0x00, 0x0f, 0x00, 0xf8,
   0x00, 0x80, 0x0f, 0x00, 0x00, 0x00, 0x00, 0x00, 0x00, 0x00, 0x7c, 0x00,
   0x1f, 0x00, 0xf0, 0x01, 0x00, 0x1f, 0x00, 0x00, 0x00, 0x00, 0x00, 0x00,
   0x00, 0x3e, 0x00, 0x1f, 0x00, 0xf0, 0x01, 0x00, 0x1f, 0x00, 0x00, 0x00,
   0x00, 0x00, 0x00, 0x00, 0x3e, 0x00, 0x3e, 0x00, 0xe0, 0x03, 0x00, 0x3e,
   0x00, 0x00, 0x00, 0x00, 0x00, 0x00, 0x00, 0x1f, 0x00, 0x3e, 0x00, 0xe0,
   0x03, 0x00, 0x3e, 0x00, 0x00, 0x00, 0x00, 0x00, 0x00, 0x00, 0x1f, 0x00,
   0x7c, 0x00, 0xc0, 0x07, 0x00, 0x7c, 0x00, 0x00, 0x00, 0x00, 0x00, 0x00,
   0x80, 0x0f, 0x00, 0x7c, 0x00, 0xc0, 0x07, 0x00, 0x7c, 0x00, 0x00, 0x00,
   0x00, 0x00, 0x00, 0x80, 0x0f, 0x00, 0xf8, 0x00, 0x80, 0x0f, 0x00, 0xf8,
   0x00, 0x00, 0x00, 0x00, 0x00, 0x00, 0xc0, 0x07, 0x00, 0xf8, 0x00, 0x80,
   0x0f, 0x00, 0xf8, 0x00, 0x00, 0x00, 0x00, 0x00, 0x00, 0xc0, 0x07, 0x00,
   0xf0, 0x01, 0x00, 0x1f, 0x00, 0xf0, 0x01, 0x00, 0x00, 0x00, 0x00, 0x00,
   0xe0, 0x03, 0x00, 0xf0, 0x01, 0x00, 0x1f, 0x00, 0xf0, 0x01, 0x00, 0x00,
   0x00, 0x00, 0x00, 0xe0, 0x03, 0x00, 0xe0, 0x03, 0x00, 0x3e, 0x00, 0xe0,
   0x03, 0x00, 0x00, 0x00, 0x00, 0x00, 0xf0, 0x01, 0x00, 0xe0, 0x03, 0x00,
   0x3e, 0x00, 0xe0, 0x03, 0x00, 0x00, 0x00, 0x00, 0x00, 0xf0, 0x01, 0x00,
   0xc0, 0x07, 0x00, 0x7c, 0x00, 0xc0, 0x07, 0x00, 0x00, 0x00, 0x00, 0x00,
   0xf8, 0x00, 0x00, 0xc0, 0x07, 0x00, 0x7c, 0x00, 0xc0, 0x07, 0x00, 0x00,
   0x00, 0x00, 0x00, 0xf8, 0x00, 0x00, 0x80, 0x0f, 0x00, 0xf8, 0x00, 0x80,
   0xff, 0xff, 0xff, 0xff, 0xff, 0xff, 0x7f, 0x00, 0x00, 0x80, 0x0f, 0x00,
   0xf8, 0x00, 0x80, 0xff, 0xff, 0xff, 0xff, 0xff, 0xff, 0x7f, 0x00, 0x00,
   0x80, 0x0f, 0x00, 0xf8, 0x00, 0x80, 0xff, 0xff, 0xff, 0xff, 0xff, 0xff,
   0x7f, 0x00, 0x00, 0x80, 0x0f, 0x00, 0xf8, 0x00, 0x80, 0xff, 0xff, 0xff,
   0xff, 0xff, 0xff, 0x7f, 0x00, 0x00, 0xc0, 0x07, 0x00, 0x7c, 0x00, 0xc0,
   0x07, 0x00, 0x00, 0x00, 0x00, 0x00, 0xf8, 0x00, 0x00, 0xc0, 0x07, 0x00,
   0x7c, 0x00, 0xc0, 0x07, 0x00, 0x00, 0x00, 0x00, 0x00, 0xf8, 0x00, 0x00,
   0xe0, 0x03, 0x00, 0x3e, 0x00, 0xe0, 0x03, 0x00, 0x00, 0x00, 0x00, 0x00,
   0xf0, 0x01, 0x00, 0xe0, 0x03, 0x00, 0x3e, 0x00, 0xe0, 0x03, 0x00, 0x00,
   0x00, 0x00, 0x00, 0xf0, 0x01, 0x00, 0xf0, 0x01, 0x00, 0x1f, 0x00, 0xf0,
   0x01, 0x00, 0x00, 0x00, 0x00, 0x00, 0xe0, 0x03, 0x00, 0xf0, 0x01, 0x00,
   0x1f, 0x00, 0xf0, 0x01, 0x00, 0x00, 0x00, 0x00, 0x00, 0xe0, 0x03, 0x00,
   0xf8, 0x00, 0x80, 0x0f, 0x00, 0xf8, 0x00, 0x00, 0x00, 0x00, 0x00, 0x00,
   0xc0, 0x07, 0x00, 0xf8, 0x00, 0x80, 0x0f, 0x00, 0xf8, 0x00, 0x00, 0x00,
   0x00, 0x00, 0x00, 0xc0, 0x07, 0x00, 0x7c, 0x00, 0xc0, 0x07, 0x00, 0x7c,
   0x00, 0x00, 0x00, 0x00, 0x00, 0x00, 0x80, 0x0f, 0x00, 0x7c, 0x00, 0xc0,
   0x07, 0x00, 0x7c, 0x00, 0x00, 0x00, 0x00, 0x00, 0x00, 0x80, 0x0f, 0x00,
   0x3e, 0x00, 0xe0, 0x03, 0x00, 0x3e, 0x00, 0x00, 0x00, 0x00, 0x00, 0x00,
   0x00, 0x1f, 0x00, 0x3e, 0x00, 0xe0, 0x03, 0x00, 0x3e, 0x00, 0x00, 0x00,
   0x00, 0x00, 0x00, 0x00, 0x1f, 0x00, 0x1f, 0x00, 0xf0, 0x01, 0x00, 0x1f,
   0x00, 0x00, 0x00, 0x00, 0x00, 0x00, 0x00, 0x3e, 0x00, 0x1f, 0x00, 0xf0,
   0x01, 0x00, 0x1f, 0x00, 0x00, 0x00, 0x00, 0x00, 0x00, 0x00, 0x3e, 0x00,
   0x0f, 0x00, 0xf8, 0x00, 0x80, 0x0f, 0x00, 0x00, 0x00, 0x00, 0x00, 0x00,
   0x00, 0x7c, 0x00, 0x0f, 0x00, 0xf8, 0x00, 0x80, 0x0f, 0x00, 0x00, 0x00,
   0x00, 0x00, 0x00, 0x00, 0x7c, 0x00, 0x07, 0x00, 0x7c, 0x00, 0xc0, 0x07,
   0x00, 0xfc, 0xff, 0xff, 0xff, 0x0f, 0x00, 0xf8, 0xff, 0x07, 0x00, 0x7c,
   0x00, 0xc0, 0x07, 0x00, 0xfc, 0xff, 0xff, 0xff, 0x0f, 0x00, 0xf8, 0xff,
   0x00, 0x00, 0x3e, 0x00, 0xe0, 0x03, 0x00, 0xfe, 0xff, 0xff, 0xff, 0x1f,
   0x00, 0xf0, 0xff, 0x00, 0x00, 0x3e, 0x00, 0xe0, 0x03, 0x00, 0xfe, 0xff,
   0xff, 0xff, 0x1f, 0x00, 0xf0, 0xff, 0x00, 0x00, 0x1f, 0x00, 0xf0, 0x01,
   0x00, 0x1f, 0x00, 0x00, 0x00, 0x3e, 0x00, 0x00, 0x00, 0x00, 0x00, 0x1f,
   0x00, 0xf0, 0x01, 0x00, 0x1f, 0x00, 0x00, 0x00, 0x3e, 0x00, 0x00, 0x00,
   0x00, 0x80, 0x0f, 0x00, 0xf8, 0x00, 0x80, 0x0f, 0x00, 0x00, 0x00, 0x7c,
   0x00, 0x00, 0x00, 0x00, 0x80, 0x0f, 0x00, 0xf8, 0x00, 0x80, 0x0f, 0x00,
   0x00, 0x00, 0x7c, 0x00, 0x00, 0x00, 0x00, 0xc0, 0x07, 0x00, 0x7c, 0x00,
   0xc0, 0x07, 0x00, 0x00, 0x00, 0xf8, 0x00, 0x00, 0x00, 0x00, 0xc0, 0x07,
   0x00, 0x7c, 0x00, 0xc0, 0x07, 0x00, 0x00, 0x00, 0xf8, 0x00, 0x00, 0x00,
   0x00, 0xe0, 0x03, 0x00, 0x3e, 0x00, 0xe0, 0x03, 0x00, 0x00, 0x00, 0xf0,
   0x01, 0x00, 0x00, 0x00, 0xe0, 0x03, 0x00, 0x3e, 0x00, 0xe0, 0x03, 0x00,
   0x00, 0x00, 0xf0, 0x01, 0x00, 0x00, 0x00, 0xf0, 0x01, 0x00, 0x1f, 0x00,
   0xf0, 0x01, 0x00, 0x00, 0x00, 0xe0, 0x03, 0x00, 0x00, 0x00, 0xf0, 0x01,
   0x00, 0x1f, 0x00, 0xf0, 0x01, 0x00, 0x00, 0x00, 0xe0, 0x03, 0x00, 0x00,
   0x00, 0xf8, 0x00, 0x80, 0x0f, 0x00, 0xf8, 0x00, 0x00, 0x00, 0x00, 0xc0,
   0x07, 0x00, 0x00, 0x00, 0xf8, 0x00, 0x80, 0x0f, 0x00, 0xf8, 0x00, 0x00,
   0x00, 0x00, 0xc0, 0x07, 0x00, 0x00, 0x00, 0x7c, 0x00, 0xc0, 0x07, 0x00,
   0x7c, 0x00, 0x00, 0x00, 0x00, 0x80, 0x0f, 0x00, 0x00, 0x00, 0x7c, 0x00,
   0xc0, 0x07, 0x00, 0x7c, 0x00, 0x00, 0x00, 0x00, 0x80, 0x0f, 0x00, 0x00,
   0x00, 0x3e, 0x00, 0xe0, 0x03, 0x00, 0x3e, 0x00, 0x00, 0x00, 0x00, 0x00,
   0x1f, 0x00, 0x00, 0x00, 0x3e, 0x00, 0xe0, 0x03, 0x00, 0x3e, 0x00, 0x00,
   0x00, 0x00, 0x00, 0x1f, 0x00, 0x00, 0xff, 0x1f, 0x00, 0xf0, 0x01, 0x00,
   0x1f, 0x00, 0xf0, 0xff, 0x03, 0x00, 0xfe, 0xff, 0xff, 0xff, 0x1f, 0x00,
   0xf0, 0x01, 0x00, 0x1f, 0x00, 0xf0, 0xff, 0x03, 0x00, 0xfe, 0xff, 0xff,
   0xff, 0x0f, 0x00, 0xf8, 0x00, 0x80, 0x0f, 0x00, 0xf8, 0xff, 0x07, 0x00,
   0xfc, 0xff, 0xff, 0xff, 0x0f, 0x00, 0xf8, 0x00, 0x80, 0x0f, 0x00, 0xf8,
   0xff, 0x07, 0x00, 0xfc, 0xff, 0xff, 0x00, 0x00, 0x00, 0x7c, 0x00, 0xc0,
   0x07, 0x00, 0x7c, 0x80, 0x0f, 0x00, 0x00, 0x00, 0x00, 0x00, 0x00, 0x00,
   0x7c, 0x00, 0xc0, 0x07, 0x00, 0x7c, 0x80, 0x0f, 0x00, 0x00, 0x00, 0x00,
   0x00, 0x00, 0x00, 0x3e, 0x00, 0xe0, 0x03, 0x00, 0x3e, 0x00, 0x1f, 0x00,
   0x00, 0x00, 0x00, 0x00, 0x00, 0x00, 0x3e, 0x00, 0xe0, 0x03, 0x00, 0x3e,
   0x00, 0x1f, 0x00, 0x00, 0x00, 0x00, 0x00, 0x00, 0x00, 0x1f, 0x00, 0xf0,
   0x01, 0x00, 0x1f, 0x00, 0x3e, 0x00, 0x00, 0x00, 0x00, 0x00, 0x00, 0x00,
   0x1f, 0x00, 0xf0, 0x01, 0x00, 0x1f, 0x00, 0x3e, 0x00, 0x00, 0x00, 0x00,
   0x00, 0x00, 0x80, 0x0f, 0x00, 0xf8, 0x00, 0x80, 0x0f, 0x00, 0x7c, 0x00,
   0x00, 0x00, 0x00, 0x00, 0x00, 0x80, 0x0f, 0x00, 0xf8, 0x00, 0x80, 0x0f,
   0x00, 0x7c, 0x00, 0x00, 0x00, 0x00, 0x00, 0x00, 0xc0, 0x07, 0x00, 0x7c,
   0x00, 0xc0, 0x07, 0x00, 0xf8, 0x00, 0x00, 0x00, 0x00, 0x00, 0x00, 0xc0,
   0x07, 0x00, 0x7c, 0x00, 0xc0, 0x07, 0x00, 0xf8, 0x00, 0x00, 0x00, 0x00,
   0x00, 0x00, 0xe0, 0x03, 0x00, 0x3e, 0x00, 0xe0, 0x03, 0x00, 0xf0, 0x01,
   0x00, 0x00, 0x00, 0x00, 0x00, 0xe0, 0x03, 0x00, 0x3e, 0x00, 0xe0, 0x03,
   0x00, 0xf0, 0x01, 0x00, 0x00, 0x00, 0x00, 0x00, 0xf0, 0x01, 0x00, 0x1f,
   0x00, 0xf0, 0x01, 0x00, 0xe0, 0x03, 0x00, 0x00, 0x00, 0x00, 0x00, 0xf0,
   0x01, 0x00, 0x1f, 0x00, 0xf0, 0x01, 0x00, 0xe0, 0x03, 0x00, 0x00, 0x00,
   0x00, 0x00, 0xf8, 0x00, 0x80, 0x0f, 0x00, 0xf8, 0x00, 0x00, 0xc0, 0x07,
   0x00, 0x00, 0x00, 0x00, 0x00, 0xf8, 0x00, 0x80, 0x0f, 0x00, 0xf8, 0x00,
   0x00, 0xc0, 0x07, 0x00, 0x00, 0x00, 0xff, 0xff, 0x7f, 0x00, 0xc0, 0x07,
   0x00, 0x7c, 0x00, 0x00, 0x80, 0xff, 0xff, 0xff, 0xff, 0xff, 0xff, 0x7f,
   0x00, 0x00, 0x07, 0x00, 0x70, 0x00, 0x00, 0x80, 0xff, 0xff, 0xff, 0xff };
